X:25
T: Windsor Terrace
C: B.McComiskey
Z: B.Black
R: hornpipe
M: 4/4
L: 1/8
K: D
(3ABc|dAFD GFEC|DCDF Adfd|(3gfe dc BA^GB|\
AECE A2 (3ABc |
dAFD GFEC|DCDF Adfd|gfec Acec|(3dcd (3edc d2 :|
(3ABc|dcde f2 (3def|edcB A2 EA|cAEA CA^GB|AECE ABcA |
dAFD GFEC|DCDF Adfd|gfec Acec|(3dcd (3edc d2 :|
